X: 473
T: Castle Donovan
N:"Moderate" "collected by F.O'Neill"
N:Irish title: caislean ui .donna.bain
B:O'Neill's 473
Z:Transcribed by henrik.norbeck@mailbox.swipnet.se
M:3/4
L:1/8
K:Gm
(G>F) | D2 G2 G>A | B2 cB G>A | B2 c2 (3d=e^f | g4 a>g |
f2 d2 cA | B2 A2 G2 | G6- | G4 GF |
D2 G2 GA | B2 cB GA | B2 c2 (3d=e^f | g4 ag |
f2 d2 c2 | B2 G2 {B}A2 | G6 | G2 z2 ||
Bc | d2 g2 af | g2 d2 dc | B2 c2 d=e | f4 dc |
B2 G2 GA | B3 cdc | B2 G2 G2 | F4 DC |
D2 G2 A2 | B2 cB G>A | B2 c2 (3d=e^f | g4 a>g |
f2 d2 c2 | B2 G2 {B}A2 | G6 | G2 z2 ||


